X:747
T:Reel 747
M:4/4
K:Dmaj
L:1/8
ed|cAAB AGEF|GEAE GEDF|EAAB =cBcd|eaag edcA|F2AB AGEF|GEBG EFGB|AGAB cdcA|eaeg edd||A2Ac dAGA|dABc BABc|ecBc dcdf|edcA dgfe|eAAc dAeA|gaed cAAB|=cABd BGBd|cAGE D2|
